brandFactory_export/3.Masa/Dato_M  compartidos_3Masa.svg

<?xml version="1.0" encoding="UTF-8"?>
<svg width="24px" height="24px" viewBox="0 0 24 24" version="1.1" xmlns="http://www.w3.org/2000/svg" xmlns:xlink="http://www.w3.org/1999/xlink">
    <title>3.Masa/Dato_M  compartidos_3Masa</title>
    <g id="Symbols" stroke="none" stroke-width="1" fill="none" fill-rule="evenodd">
        <g id="3.Masa/Dato_M--compartidos_3Masa" fill="#5CB615" fill-rule="nonzero">
            <path d="M21.0016807,6.30756303 C21.8588235,6.30756303 22.4907563,6.52268908 22.9344538,6.96302521 C23.3815126,7.40672269 23.6,8.04201681 23.5966768,8.90588235 L23.5966768,8.90588235 L23.5966768,18.7546218 C23.5966768,20.4554622 22.6991597,21.3529412 20.9983193,21.3529412 L20.9983193,21.3529412 L15.7142857,21.3529412 C14.0369748,21.3529412 13.1159664,20.4285714 13.1159664,18.7546218 L13.1159664,18.7546218 L13.1159664,16.0386555 L14.9109244,16.0319328 C15.0890756,16.0420168 15.2638655,15.9647059 15.3848739,15.8302521 C15.4957983,15.7058824 15.5495798,15.5378151 15.5361345,15.3697479 L15.5361345,15.3697479 L15.5327731,14.0521008 C15.5361345,13.8941176 15.4722689,13.7361345 15.3579832,13.6184874 C15.2302521,13.4840336 15.0521008,13.4201681 14.8672269,13.4369748 L14.8672269,13.4369748 L13.1193277,13.4336134 L13.1193277,11.7932773 C13.1193277,11.7764706 13.1226891,11.7596639 13.1226891,11.7428571 L13.1226891,11.7428571 L13.9361345,11.1378151 C13.9394958,11.1411765 13.9428571,11.1411765 13.9462185,11.1411765 L13.9462185,11.1411765 L13.9462185,11.1344538 L15.4621849,10.005042 C15.5932773,9.90756303 15.6672269,9.76302521 15.6672269,9.60840336 C15.6672269,9.45378151 15.5932773,9.3092437 15.4621849,9.21176471 L15.4621849,9.21176471 L13.3882353,7.65882353 C13.394958,7.55462185 13.4252101,7.44705882 13.4823529,7.34957983 C13.8957983,6.65714286 14.6487395,6.30756303 15.7176471,6.30756303 L15.7176471,6.30756303 Z M18.3596639,18.2268908 C18.0067227,18.2268908 17.7747899,18.4117647 17.7747899,18.8151261 C17.7747899,19.010084 17.8285714,19.1512605 17.9226891,19.2487395 C18.0235294,19.3529412 18.1747899,19.4033613 18.3596639,19.4033613 C18.5445378,19.4033613 18.6957983,19.3529412 18.7966387,19.2487395 C18.8941176,19.1546218 18.9445378,19.010084 18.9445378,18.8151261 C18.9445378,18.4151261 18.7159664,18.2268908 18.3596639,18.2268908 Z M7.90252101,3.02352941 C9.57983193,3.02352941 10.5008403,3.94789916 10.5008403,5.62184874 L10.5008403,5.62184874 L10.5008403,8.04537815 C10.5008403,8.1394958 10.4806723,8.2302521 10.4470588,8.31092437 L10.4470588,8.31092437 L8.8,8.31428571 C8.61848739,8.29747899 8.44033613,8.36134454 8.3092437,8.49579832 C8.19495798,8.61344538 8.13109244,8.77142857 8.13445378,8.92941176 L8.13445378,8.92941176 L8.12773109,10.2436975 C8.11428571,10.4117647 8.16806723,10.5798319 8.2789916,10.7042017 C8.4,10.8420168 8.57478992,10.9159664 8.75294118,10.9058824 L8.75294118,10.9058824 L10.5008403,10.912605 L10.5008403,12.5058824 C10.5008403,12.5495798 10.4941176,12.589916 10.487395,12.6302521 L10.487395,12.6302521 L9.76134454,13.1747899 C9.7210084,13.1714286 9.67731092,13.1647059 9.63697479,13.1512605 L9.63697479,13.1512605 L9.63361345,13.2722689 L8.20840336,14.3411765 C8.07731092,14.4386555 8.00336134,14.5831933 8.00336134,14.7378151 C8.00336134,14.892437 8.07731092,15.0369748 8.20840336,15.1344538 L8.20840336,15.1344538 L10.1411765,16.5731092 C10.2016807,16.7680672 10.1747899,16.989916 10.0470588,17.1680672 C9.61008403,17.7731092 8.91092437,18.0689076 7.90252101,18.0689076 L7.90252101,18.0689076 L2.61848739,18.0689076 C1.76134454,18.0689076 1.12941176,17.8571429 0.685714286,17.4168067 C0.238655462,16.9731092 0.0201680673,16.3378151 0.0201680673,15.4739496 L0.0201680673,15.4739496 L0.0201680673,5.62184874 C0.0201680673,3.9210084 0.917647059,3.02352941 2.61848739,3.02352941 L2.61848739,3.02352941 Z M11.0588235,13.194958 L11.0487395,13.9579832 C11.0487395,14.0420168 11.1159664,14.1092437 11.1966387,14.1092437 L14.6420168,14.112605 C14.7697479,14.092437 14.8672269,14.2033613 14.8638655,14.307563 L14.8672269,15.1512605 C14.8840336,15.2890756 14.7764706,15.3831933 14.6722689,15.3764706 L11.2436975,15.3865546 C11.1596639,15.3865546 11.092437,15.4571429 11.0890756,15.5378151 L11.0789916,16.2470588 C11.0789916,16.3310924 11.0218487,16.3579832 10.9546218,16.307563 L8.94453782,14.8117647 C8.87731092,14.7613445 8.87731092,14.6806723 8.94453782,14.6302521 L10.9411765,13.1344538 C11.0084034,13.0840336 11.0621849,13.1109244 11.0588235,13.194958 Z M5.29747899,14.9630252 C4.94453782,14.9630252 4.71260504,15.1478992 4.71260504,15.5512605 C4.71260504,15.7462185 4.76638655,15.887395 4.8605042,15.9848739 C4.96134454,16.0890756 5.11260504,16.1394958 5.29747899,16.1394958 C5.48235294,16.1394958 5.63361345,16.0890756 5.73445378,15.9848739 C5.83193277,15.887395 5.88235294,15.7462185 5.88235294,15.5512605 C5.88235294,15.1512605 5.65378151,14.9630252 5.29747899,14.9630252 Z M12.6117647,8.06554622 C12.6084034,7.98151261 12.6621849,7.95462185 12.7294118,8.00504202 L12.7294118,8.00504202 L14.7260504,9.50084034 C14.7932773,9.5512605 14.7932773,9.63193277 14.7260504,9.68235294 L14.7260504,9.68235294 L12.7159664,11.1781513 C12.6487395,11.2285714 12.5915966,11.2016807 12.5915966,11.1176471 L12.5915966,11.1176471 L12.5815126,10.4084034 C12.5781513,10.3277311 12.5109244,10.2571429 12.4268908,10.2571429 L12.4268908,10.2571429 L8.99831933,10.2470588 C8.8907563,10.2571429 8.78655462,10.1630252 8.80336134,10.0218487 L8.80336134,10.0218487 L8.80672269,9.17815126 C8.80336134,9.07394958 8.90084034,8.96302521 9.02857143,8.98319328 L9.02857143,8.98319328 L12.4739496,8.97983193 C12.5546218,8.97983193 12.6218487,8.91260504 12.6218487,8.82857143 L12.6218487,8.82857143 Z" id="Dato_M--compartidos_3Masa"></path>
        </g>
    </g>
</svg>

<svg width="24" height="24" viewBox="0 0 24 24" xmlns="http://www.w3.org/2000/svg"><path d="M21.002 6.308c.857 0 1.489.215 1.932.655.448.444.666 1.079.663 1.943v9.849c0 1.7-.898 2.598-2.599 2.598h-5.284c-1.677 0-2.598-.924-2.598-2.598v-2.716l1.795-.007a.598.598 0 00.474-.202.619.619 0 00.151-.46l-.003-1.318a.61.61 0 00-.175-.434.595.595 0 00-.49-.181l-1.749-.003v-1.64c0-.018.004-.034.004-.051l.813-.605c.003.003.007.003.01.003v-.007l1.516-1.129a.492.492 0 00.205-.397c0-.154-.074-.299-.205-.396l-2.074-1.553a.703.703 0 01.094-.31c.414-.692 1.167-1.041 2.236-1.041zM18.36 18.227c-.353 0-.585.185-.585.588 0 .195.054.336.148.434.1.104.252.154.437.154s.336-.05.437-.154c.097-.094.148-.239.148-.434 0-.4-.229-.588-.585-.588zM7.903 3.024c1.677 0 2.598.924 2.598 2.598v2.423c0 .094-.02.185-.054.266L8.8 8.314a.61.61 0 00-.666.615l-.006 1.315a.619.619 0 00.151.46.588.588 0 00.474.202l1.748.007v1.593c0 .044-.007.084-.014.124l-.726.545a.54.54 0 01-.124-.024l-.003.121-1.426 1.07a.492.492 0 00-.205.396c0 .154.074.299.205.396l1.933 1.44a.677.677 0 01-.094.594c-.437.605-1.136.9-2.144.9H2.618c-.857 0-1.489-.21-1.932-.651-.447-.444-.666-1.08-.666-1.943V5.622c0-1.701.898-2.598 2.598-2.598zm3.156 10.171l-.01.763a.15.15 0 00.148.151l3.445.004c.128-.02.225.09.222.195l.003.843c.017.138-.09.232-.195.225l-3.428.01a.158.158 0 00-.155.152l-.01.71c0 .083-.057.11-.124.06l-2.01-1.496c-.068-.05-.068-.131 0-.182l1.996-1.496c.067-.05.121-.023.118.061zm-5.762 1.768c-.352 0-.584.185-.584.588 0 .195.053.336.148.434.1.104.252.154.436.154.185 0 .337-.05.437-.154.098-.098.148-.239.148-.434 0-.4-.228-.588-.585-.588zm7.315-6.897c-.004-.084.05-.111.117-.061l1.997 1.496c.067.05.067.13 0 .181l-2.01 1.496c-.067.05-.124.024-.124-.06l-.01-.71a.158.158 0 00-.155-.15l-3.429-.01c-.107.01-.211-.085-.195-.226l.004-.844c-.004-.104.094-.215.222-.195l3.445-.003a.15.15 0 00.148-.151z" fill="#5CB615" fill-rule="nonzero"/></svg>
